X: 6800
T: Charles O'Connor
R: jig
M: 6/8
K: Dmajor
|:A|d2A d2A|BAG FGA|Bcd ecA|dfa a2g|
fgf ~B2B|efe ~A2A|dcB AFA|dAF D2:|
|:A|A2D FED|B=cB AFD|DFA DFA|GEe c2A|
f2f fgf|faf fdB|e2e efe|eae ecA|
dcB AFE|FAA f2e|dcB AFA|dAF D2:|

